X: 19082
T: Irish Girl, The
R: reel
M: 4/4
K: Dmajor
(AG)|SFGAF DEFD|E(A, {B,}A,G,) A,2 (AG)|FGAF DEFG|(3fga ec dBAG|
FGAF DEFD|E>(A, {B,}(3A,G,A,) E>(A, {B,}(3A,G,A,)|FGAF DEFA|faec d2||
(ag)|fd{e}dc ~dcd.f|edcd efge|fd{e}dc dfaf|ec (3ABc d2 (ag)|
fd{e}dc dfaf|edcd efge|fdef gbag|(3fga (ec) dBAGS||

